X: 305639
M: 2/4
L: 1/16
K: Bb
e2g^f g4 | d2f=e f4 | c2ed e2 | d2c2 B2 H|]
f2 |\
bbaa ggff | bbaa ggff | fede fgab | c'8 |\
aagg ffee | aagg ffee | edcd efga | b4 "^D.C."z2 :|


